packages/icons/src/SVG/save.svg

<!-- Generated by IcoMoon.io -->
<svg version="1.1" xmlns="http://www.w3.org/2000/svg" width="12" height="12" viewBox="0 0 12 12">
<title>save</title>
<path d="M10 6v4h-8v-4h8zM9 7h-6v2h6v-2z"></path>
<path d="M0 0h8.707l3.293 3.293v8.707h-12v-12zM3 1h-2v10h10v-7.293l-2.707-2.707h-0.293v3h-5v-3zM7 1h-3v2h3v-2z"></path>
</svg>

<svg width="12" height="12" viewBox="0 0 12 12" >
<path fill-rule="evenodd" clip-rule="evenodd" d="M10 6H2V10H10V6ZM9 7H3V9H9V7Z" />
<path fill-rule="evenodd" clip-rule="evenodd" d="M0 0V12H12V3.29289L8.70711 0H0ZM3 1H1V11H11V3.70711L8.29289 1H8V4H3V1ZM7 1H4V3L7 3V1Z" />
</svg>
